X:1
T:Fado das Horas
C:Traditional
L:1/8
M:4/4
K:Dmaj
DEG | F4 E2 D2 | F4 E4- | E8 | E4 G2 G2 | A2 A2 A2 G2 |
 F6 E2 | D8- | D2 D2 E2 G2 |  F4 A2 G2 | F4 E4- |  E4 A2 G2 |
F2 E2 C4 | C2 D2 E2 D2 | D8 | D8 | D2 D2 E2 G2 | F4 A2 G2 | 
F4 E4- | E4 A2 G2 | F2 E2 C4- | C2 D2 E2 D2 | D8- | d2 z6 ||

